X:202
T: HOLDE NACHT DEIN DUNKLER SCHLEIER
N: E1342A
O: Europa, Mitteleuropa, Deutschland
R: Staende -, Soldaten -, Kriegs - Lied
M: 4/4
L: 1/8
K: G
DD | G3GGGAG | BAGFE2
D2 | G3GGBdB | B2A2z2
DD | c3cccdc | cBB2z2
GF | E3cdcBA | A2G2z2

